img/svg/fb.svg

<svg width="10" height="18" viewBox="0 0 10 18" fill="none" xmlns="http://www.w3.org/2000/svg">
<path d="M6.66732 10.2501H8.75065L9.58398 6.91675H6.66732V5.25008C6.66732 4.39175 6.66732 3.58341 8.33398 3.58341H9.58398V0.783415C9.31232 0.747581 8.28648 0.666748 7.20315 0.666748C4.94065 0.666748 3.33398 2.04758 3.33398 4.58341V6.91675H0.833984V10.2501H3.33398V17.3334H6.66732V10.2501Z" fill="white"/>
</svg>

<svg width="10" height="18" fill="none" xmlns="http://www.w3.org/2000/svg"><path d="M6.667 10.25h2.084l.833-3.333H6.667V5.25c0-.858 0-1.667 1.667-1.667h1.25v-2.8a23.472 23.472 0 00-2.38-.116c-2.263 0-3.87 1.38-3.87 3.916v2.334h-2.5v3.333h2.5v7.083h3.333V10.25z" fill="#fff"/></svg>
